X:21
T:Honeysuckle
M:4/4
L:1/8
R:hornpipe
K:D
(3ABc | d2cA (3Bcd AF | DFAF GBAG | FAdA FAdf | edcB AB (3cBA |
d2cA (3Bcd AF | DFAF GBAG | FAdB AGFE | F2 D2 D2 ::
(3ABc | dcde fdec | defg a3f | geeg fddf | edcB AB (3cBA |
d2cA (3Bcd AF | DFAF GBAG | FAdB AGFE | F2 D2 D2 :|
